X: 114
T: No_72_I_Am_Rewarding_You.krn
N: Derived from No_72_I_Am_Rewarding_You.krn
%%abc-version 2.0
%%abcx-abcm2ps-target-version 5.9.1 (29 Sep 2008)
%%abc-creator hum2abc beta
%%abcx-conversion-date 2019/03/15 08:35:45
%%humdrum-veritas 625110684
%%humdrum-veritas-data 3474066446
%%linebreak <none>
%%barnumbers 0
L: 1/16
M: 3/4
K: F clef=bass
[K:clef=bass][M:3/4]C2C2A,4C3D ||  
[M:2/4]C8 ||  
[M:3/4]CA,3 G,F,2 z A,3C ||  
[M:2/4]A,8 | 
G,F,3 F,D,2 z | 
F,3G,F,4 ||  
[M:3/4]F,8z4 | 
A,A,3 G,F,3 D,C,3 ||  
[M:2/4]D,8 ||  
[M:3/4]D,C,3 C,A,,2 z C,3C, | 
C,12 |]  



